X:1
T:Title
%%score 1 { 2 | 3 }
L:1/8
Q:1/4=110
M:4/4
K:F
V:1 treble nm="Grand Piano, Soprano"
V:2 treble nm="Choir Pad, Belsize, 66.66.44.44"
V:3 bass 
V:1
 [FA]2 [Fc]2 F2 [FA]2 | [EG]2 F6 | [DF]2 [DA]2 D2 [DF]2 | [^CE]2 D6 | [FA]2 [FG]2 [EG]2 [Gc]2 | %5
w: By~James~William~Elliott * * *|||||
 [_A=B]2 =A6 | [_Ec]2 [=Ec]2 [EG]2 [FA]2 | [F=B]2 [Ec]6 | [Ed]2 [Ed]2 [E^F]2 [EG]2 | %9
w: ||||
 [Ed]2 [_Ed]2 [Ec]2 [EA]2 | [_EF]2 [DF]2 [DB]2 [DA]2 | [DG]2 [CF]4 [CE]2- | [CE]2 [CF]6- | %13
w: ||||
 [CF]2 z2 z4 |] %14
w: |
V:2
 C2 C2 D2 C2 | B,2[K:bass] A,6 | B,2 A,2 B,2 A,2 | G,2 F,6 | C2 =B,2 C2 E2 | D2 C6 | %6
 A,2 G,2 C2 C2 | D2 C6 | B,2 B,2 B,2 B,2 | B,2 A,2 A,2 C2 | A,2 B,2 F,2 ^F,2 | G,2 A,4 B,2- | %12
 B,2 A,6- | A,2 z2 z4 |] %14
V:3
 F,2 A,,2 B,,2 C,2 | C,2 F,6 | B,,2 F,,2 G,,2 A,,2 | A,,2 D,6 | D,2 D,2 E,2 E,2 | E,2 F,6 | %6
 ^F,2 z2 G,2 G,2 | G,2 C,6 | C,2 C,2 C,2 C,2 | C,2 F,2 F,2 F,2 | F,2 B,,2 B,,2 B,,2 | %11
 B,,2 C,4 C,2- | C,2 F,,6- | F,,2 z2 z4 |] %14

